teeny/outline/mood-flat.svg

<svg width="15" height="15" viewBox="0 0 15 15" fill="none" xmlns="http://www.w3.org/2000/svg">
<path d="M4 5.5H5M10 5.5H11M4 9.5H11M7.5 14.5C3.63401 14.5 0.5 11.366 0.5 7.5C0.5 3.63401 3.63401 0.5 7.5 0.5C11.366 0.5 14.5 3.63401 14.5 7.5C14.5 11.366 11.366 14.5 7.5 14.5Z" stroke="black"/>
</svg>

<svg viewBox="0 0 15 15" xmlns="http://www.w3.org/2000/svg"><path fill="none" stroke="#000" d="M4 5.5h1m5 0h1m-7 4h7m-3.5 5c-3.87 0-7-3.14-7-7 0-3.87 3.13-7 7-7 3.86 0 7 3.13 7 7 0 3.86-3.14 7-7 7Z"/></svg>
